packages/icons/src/SVG/chatting.svg

<svg width="12" height="12" viewBox="0 0 12 12" >
<path d="M5.53096 6.93326C6.08636 6.93326 6.53659 6.47339 6.53659 5.90611C6.53659 5.33883 6.08636 4.87896 5.53096 4.87896C4.97557 4.87896 4.52533 5.33883 4.52533 5.90611C4.52533 6.47339 4.97557 6.93326 5.53096 6.93326Z" />
<path d="M3.77111 5.90611C3.77111 6.47339 3.32088 6.93326 2.76548 6.93326C2.21009 6.93326 1.75985 6.47339 1.75985 5.90611C1.75985 5.33883 2.21009 4.87896 2.76548 4.87896C3.32088 4.87896 3.77111 5.33883 3.77111 5.90611Z" />
<path d="M8.29645 6.93326C8.85184 6.93326 9.30208 6.47339 9.30208 5.90611C9.30208 5.33883 8.85184 4.87896 8.29645 4.87896C7.74105 4.87896 7.29082 5.33883 7.29082 5.90611C7.29082 6.47339 7.74105 6.93326 8.29645 6.93326Z" />
<path fill-rule="evenodd" clip-rule="evenodd" d="M5.65667 11.5554C6.74104 11.5554 7.75414 11.2438 8.61481 10.7034L12 12L10.6868 8.42327C11.0872 7.63061 11.3133 6.73113 11.3133 5.77771C11.3133 2.58677 8.78076 0 5.65667 0C2.53258 0 0 2.58677 0 5.77771C0 8.96866 2.53258 11.5554 5.65667 11.5554ZM5.65667 1.00482C3.0759 1.00482 0.983768 3.14172 0.983768 5.77771C0.983768 8.41371 3.0759 10.5506 5.65667 10.5506C6.72928 10.5506 7.71749 10.1815 8.50617 9.56082L9.55348 9.9658L10.2816 10.2448L10.0004 9.47898L9.58803 8.35878C10.0573 7.61464 10.3296 6.72865 10.3296 5.77771C10.3296 3.14172 8.23744 1.00482 5.65667 1.00482Z" />
</svg>

<!-- Generated by IcoMoon.io -->
<svg version="1.1" xmlns="http://www.w3.org/2000/svg" width="12" height="12" viewBox="0 0 12 12">
<title>chatting</title>
<path d="M5.531 6.933c0.555 0 1.006-0.46 1.006-1.027s-0.45-1.027-1.006-1.027c-0.555 0-1.006 0.46-1.006 1.027s0.45 1.027 1.006 1.027z"></path>
<path d="M3.771 5.906c0 0.567-0.45 1.027-1.006 1.027s-1.006-0.46-1.006-1.027c0-0.567 0.45-1.027 1.006-1.027s1.006 0.46 1.006 1.027z"></path>
<path d="M8.296 6.933c0.555 0 1.006-0.46 1.006-1.027s-0.45-1.027-1.006-1.027c-0.555 0-1.006 0.46-1.006 1.027s0.45 1.027 1.006 1.027z"></path>
<path d="M5.657 11.555c-3.124 0-5.657-2.587-5.657-5.778s2.533-5.778 5.657-5.778c3.124 0 5.657 2.587 5.657 5.778 0 0.953-0.226 1.853-0.626 2.646l1.313 3.577-3.385-1.297c-0.861 0.54-1.874 0.852-2.958 0.852zM5.657 1.005c-2.581 0-4.673 2.137-4.673 4.773s2.092 4.773 4.673 4.773c1.073 0 2.061-0.369 2.849-0.99l1.047 0.405 0.728 0.279-0.281-0.766-0.412-1.12c0.469-0.744 0.742-1.63 0.742-2.581 0-2.636-2.092-4.773-4.673-4.773z"></path>
</svg>
